icons/file-document-box.svg

﻿<?xml version="1.0" encoding="utf-8"?>
<!DOCTYPE svg PUBLIC "-//W3C//DTD SVG 1.1//EN" "http://www.w3.org/Graphics/SVG/1.1/DTD/svg11.dtd">
<svg xmlns="http://www.w3.org/2000/svg" xmlns:xlink="http://www.w3.org/1999/xlink" version="1.1" baseProfile="full" width="24" height="24" viewBox="0 0 24.00 24.00" enable-background="new 0 0 24.00 24.00" xml:space="preserve">
	<path fill="#000000" fill-opacity="1" stroke-width="0.2" stroke-linejoin="round" d="M 14.0094,16.9981L 6.99939,16.9981L 6.99939,14.9981L 14.0094,14.9981M 17.0094,12.9981L 6.99939,12.9981L 6.99939,10.9981L 17.0094,10.9981M 17.0094,8.99807L 6.99939,8.99807L 6.99939,6.99807L 17.0094,6.99807M 18.9994,2.99807L 4.99939,2.99807C 3.89439,2.99807 2.99939,3.89406 2.99939,4.99807L 2.99939,18.9981C 2.99939,20.1021 3.89439,20.9981 4.99939,20.9981L 18.9994,20.9981C 20.1034,20.9981 20.9994,20.1021 20.9994,18.9981L 20.9994,4.99807C 20.9994,3.89406 20.1034,2.99807 18.9994,2.99807 Z "/>
</svg>

<svg xmlns="http://www.w3.org/2000/svg" width="24" height="24" baseProfile="full" viewBox="0 0 24 24"><path d="M14.01 16.998H7v-2h7.01m3-2H7v-2h10.01m0-2H7v-2h10.01m1.99-4H5a2 2 0 00-2 2v14a2 2 0 002 2h14a2 2 0 002-2v-14a2 2 0 00-2-2z"/></svg>
